svg/600/outlined/ink_eraser_off.svg

<svg xmlns="http://www.w3.org/2000/svg" width="48" height="48" viewBox="0 -960 960 960"><path d="m829.392-43.477-219.87-219.305-110.479 116.913h-335.87l-82.13-84.565q-23.747-23.199-22.917-55.057.83-31.857 22.482-54.51l217.696-234L43.477-829.392l46.957-46.957L876.35-90.434l-46.957 46.957Zm-631.871-181.61H468.13l85.826-93.261-200.521-201.087-213.696 234 57.782 60.348Zm503.48-134.609-55.566-55.566L788.173-570.87 589.652-779.391 443.913-616.783l-54.565-55.131 145.303-157.608q21.653-22.652 54.152-22.37 32.499.283 55.545 22.935l195.956 205.956q23.218 23.199 24.218 55.84 1 32.64-22.218 55.292L701.001-359.696ZM544.957-516.305Zm-91.044 97.479Z"/></svg>

<svg xmlns="http://www.w3.org/2000/svg" width="48" height="48" viewBox="0 -960 960 960"><path d="m829.39-43.48-219.87-219.3-110.48 116.91H163.17l-82.13-84.56q-23.74-23.2-22.91-55.06.83-31.86 22.48-54.51L298.3-574 43.48-829.39l46.95-46.96L876.35-90.43l-46.96 46.95ZM197.52-225.09h270.61l85.83-93.26-200.53-201.08-213.69 234 57.78 60.34ZM701-359.7l-55.57-55.56 142.74-155.61-198.52-208.52-145.74 162.61-54.56-55.13 145.3-157.61q21.65-22.65 54.15-22.37 32.5.28 55.55 22.93L840.3-623q23.22 23.2 24.22 55.84t-22.22 55.29L701-359.7ZM544.96-516.3Zm-91.05 97.47Z"/></svg>
